src/assets/svg/shopping-cart.svg

<svg width="24" height="24" viewBox="0 0 24 24" fill="none" xmlns="http://www.w3.org/2000/svg">
<path d="M10.0002 20C9.4698 20 8.9611 19.7893 8.58602 19.4142C8.21095 19.0391 8.00024 18.5304 8.00024 18C8.00024 17.4696 8.21095 16.9609 8.58602 16.5858C8.9611 16.2107 9.4698 16 10.0002 16C10.5307 16 11.0394 16.2107 11.4145 16.5858C11.7895 16.9609 12.0002 17.4696 12.0002 18C12.0002 18.5304 11.7895 19.0391 11.4145 19.4142C11.0394 19.7893 10.5307 20 10.0002 20ZM17.0002 20C16.4698 20 15.9611 19.7893 15.586 19.4142C15.211 19.0391 15.0002 18.5304 15.0002 18C15.0002 17.4696 15.211 16.9609 15.586 16.5858C15.9611 16.2107 16.4698 16 17.0002 16C17.5307 16 18.0394 16.2107 18.4145 16.5858C18.7895 16.9609 19.0002 17.4696 19.0002 18C19.0002 18.5304 18.7895 19.0391 18.4145 19.4142C18.0394 19.7893 17.5307 20 17.0002 20ZM3.96224 5.923C3.7126 5.91495 3.47588 5.81012 3.30214 5.63068C3.12839 5.45125 3.03125 5.21127 3.03125 4.9615C3.03125 4.71173 3.12839 4.47175 3.30214 4.29232C3.47588 4.11288 3.7126 4.00805 3.96224 4H5.11324C6.01524 4 6.79524 4.626 6.99124 5.506L8.24424 11.148C8.44024 12.028 9.22024 12.654 10.1222 12.654H17.6342L19.0762 6.884H9.73124C9.48395 6.87272 9.25053 6.76654 9.07952 6.58755C8.90852 6.40857 8.81309 6.17055 8.81309 5.923C8.81309 5.67545 8.90852 5.43743 9.07952 5.25845C9.25053 5.07946 9.48395 4.97328 9.73124 4.962H19.0762C19.3686 4.96191 19.6571 5.02848 19.9198 5.15663C20.1826 5.28479 20.4126 5.47116 20.5925 5.70158C20.7724 5.93201 20.8974 6.20041 20.958 6.4864C21.0186 6.77238 21.0132 7.06842 20.9422 7.352L19.5002 13.12C19.3963 13.5362 19.1561 13.9057 18.818 14.1697C18.4799 14.4337 18.0632 14.5771 17.6342 14.577H10.1222C9.24703 14.5771 8.39796 14.2787 7.71525 13.7311C7.03254 13.1835 6.55703 12.4194 6.36724 11.565L5.11324 5.923H3.96224Z" fill="#21272A"/>
</svg>

<svg width="24" height="24" fill="none" xmlns="http://www.w3.org/2000/svg"><path d="M10 20a2 2 0 110-4 2 2 0 010 4zm7 0a2 2 0 110-4 2 2 0 010 4zM3.962 5.923a.962.962 0 010-1.923h1.151c.902 0 1.682.626 1.878 1.506l1.253 5.642c.196.88.976 1.506 1.878 1.506h7.512l1.442-5.77H9.731a.962.962 0 010-1.922h9.345a1.923 1.923 0 011.866 2.39L19.5 13.12a1.923 1.923 0 01-1.866 1.457h-7.512a3.846 3.846 0 01-3.755-3.012L5.113 5.923h-1.15z" fill="#21272A"/></svg>
